svg/color/lkn.svg

<?xml version="1.0" encoding="UTF-8" ?>
<!DOCTYPE svg PUBLIC "-//W3C//DTD SVG 1.1//EN" "http://www.w3.org/Graphics/SVG/1.1/DTD/svg11.dtd">
<svg width="250pt" height="250pt" viewBox="0 0 250 250" version="1.1" xmlns="http://www.w3.org/2000/svg">
<g id="#ffffffff">
<path fill="#ffffff" opacity="1.00" d=" M 0.00 0.00 L 250.00 0.00 L 250.00 250.00 L 0.00 250.00 L 0.00 0.00 M 107.30 3.72 C 92.81 5.91 78.65 10.55 65.83 17.68 C 43.46 30.00 25.21 49.46 14.36 72.57 C 7.93 85.51 4.56 99.78 3.01 114.09 C 1.44 131.69 4.24 149.51 10.15 166.12 C 20.26 193.96 40.95 217.79 67.13 231.65 C 84.55 240.84 104.24 246.16 124.00 245.66 C 145.28 246.29 166.55 240.37 184.97 229.83 C 208.59 216.45 227.31 194.77 237.34 169.57 C 242.41 157.33 244.86 144.18 246.22 131.06 C 247.11 115.74 244.44 100.37 239.93 85.76 C 233.58 68.21 224.07 51.47 210.55 38.44 C 191.47 19.29 165.90 6.61 139.02 3.45 C 128.46 3.05 117.84 2.82 107.30 3.72 Z" />
<path fill="#ffffff" opacity="1.00" d=" M 55.22 85.79 C 60.15 84.95 65.67 84.92 69.88 87.99 C 75.62 92.11 77.74 99.44 78.54 106.13 C 78.98 117.75 78.49 129.39 78.75 141.01 C 78.48 144.20 82.64 146.62 81.17 149.63 C 73.71 149.85 66.22 149.85 58.76 149.67 C 58.42 149.29 57.74 148.53 57.40 148.15 C 56.81 137.11 57.38 126.03 57.10 114.98 C 56.88 113.31 56.93 110.89 54.83 110.47 C 49.34 108.33 42.00 108.68 38.69 102.90 C 38.05 100.28 38.18 97.24 39.98 95.09 C 43.77 90.34 49.45 87.39 55.22 85.79 Z" />
<path fill="#ffffff" opacity="1.00" d=" M 106.54 111.56 C 116.07 103.13 130.12 100.26 142.20 104.20 C 152.30 107.47 159.89 115.95 164.46 125.26 C 168.01 133.24 171.70 141.56 171.61 150.46 C 163.54 150.22 155.45 150.19 147.38 150.49 C 147.28 142.07 145.49 132.92 138.95 127.05 C 135.85 124.09 131.25 124.08 127.27 124.71 C 120.91 126.34 116.43 132.07 114.30 138.02 C 113.32 142.03 111.93 145.99 111.60 150.13 C 104.07 149.58 96.43 149.41 88.92 150.31 C 88.37 147.04 89.35 143.78 89.95 140.59 C 92.99 129.81 98.02 119.09 106.54 111.56 Z" />
<path fill="#ffffff" opacity="1.00" d=" M 184.73 131.72 C 187.48 125.88 196.34 124.33 200.66 129.35 C 204.43 132.62 203.81 138.03 202.85 142.41 C 202.21 144.87 201.91 147.62 200.19 149.61 C 193.78 150.03 187.36 149.60 180.94 149.71 C 181.74 143.64 182.44 137.45 184.73 131.72 Z" />
</g>
<g id="#5841d8ff">
<path fill="#5841d8" opacity="1.00" d=" M 107.30 3.72 C 117.84 2.82 128.46 3.05 139.02 3.45 C 165.90 6.61 191.47 19.29 210.55 38.44 C 224.07 51.47 233.58 68.21 239.93 85.76 C 244.44 100.37 247.11 115.74 246.22 131.06 C 244.86 144.18 242.41 157.33 237.34 169.57 C 227.31 194.77 208.59 216.45 184.97 229.83 C 166.55 240.37 145.28 246.29 124.00 245.66 C 104.24 246.16 84.55 240.84 67.13 231.65 C 40.95 217.79 20.26 193.96 10.15 166.12 C 4.24 149.51 1.44 131.69 3.01 114.09 C 4.56 99.78 7.93 85.51 14.36 72.57 C 25.21 49.46 43.46 30.00 65.83 17.68 C 78.65 10.55 92.81 5.91 107.30 3.72 M 55.22 85.79 C 49.45 87.39 43.77 90.34 39.98 95.09 C 38.18 97.24 38.05 100.28 38.69 102.90 C 42.00 108.68 49.34 108.33 54.83 110.47 C 56.93 110.89 56.88 113.31 57.10 114.98 C 57.38 126.03 56.81 137.11 57.40 148.15 C 57.74 148.53 58.42 149.29 58.76 149.67 C 66.22 149.85 73.71 149.85 81.17 149.63 C 82.64 146.62 78.48 144.20 78.75 141.01 C 78.49 129.39 78.98 117.75 78.54 106.13 C 77.74 99.44 75.62 92.11 69.88 87.99 C 65.67 84.92 60.15 84.95 55.22 85.79 M 106.54 111.56 C 98.02 119.09 92.99 129.81 89.95 140.59 C 89.35 143.78 88.37 147.04 88.92 150.31 C 96.43 149.41 104.07 149.58 111.60 150.13 C 111.93 145.99 113.32 142.03 114.30 138.02 C 116.43 132.07 120.91 126.34 127.27 124.71 C 131.25 124.08 135.85 124.09 138.95 127.05 C 145.49 132.92 147.28 142.07 147.38 150.49 C 155.45 150.19 163.54 150.22 171.61 150.46 C 171.70 141.56 168.01 133.24 164.46 125.26 C 159.89 115.95 152.30 107.47 142.20 104.20 C 130.12 100.26 116.07 103.13 106.54 111.56 M 184.73 131.72 C 182.44 137.45 181.74 143.64 180.94 149.71 C 187.36 149.60 193.78 150.03 200.19 149.61 C 201.91 147.62 202.21 144.87 202.85 142.41 C 203.81 138.03 204.43 132.62 200.66 129.35 C 196.34 124.33 187.48 125.88 184.73 131.72 Z" />
</g>
</svg>

<?xml version="1.0" encoding="utf-8"?>
<!-- Generator: Adobe Illustrator 26.0.3, SVG Export Plug-In . SVG Version: 6.00 Build 0)  -->
<svg version="1.1" id="Layer_1" xmlns="http://www.w3.org/2000/svg" xmlns:xlink="http://www.w3.org/1999/xlink" x="0px" y="0px"
	 viewBox="0 0 250 250" style="enable-background:new 0 0 250 250;" xml:space="preserve">
<style type="text/css">
	.st0{fill:#FFFFFF;}
	.st1{fill:#5841D8;}
</style>
<g id="_x23_ffffffff">
	<path class="st0" d="M55.2,85.8c4.9-0.8,10.4-0.9,14.7,2.2c5.7,4.1,7.9,11.5,8.7,18.1c0.4,11.6-0.1,23.3,0.2,34.9
		c-0.3,3.2,3.9,5.6,2.4,8.6c-7.5,0.2-14.9,0.2-22.4,0c-0.3-0.4-1-1.1-1.4-1.5c-0.6-11,0-22.1-0.3-33.2c-0.2-1.7-0.2-4.1-2.3-4.5
		c-5.5-2.1-12.8-1.8-16.1-7.6c-0.6-2.6-0.5-5.7,1.3-7.8C43.8,90.3,49.5,87.4,55.2,85.8z"/>
	<path class="st0" d="M106.5,111.6c9.5-8.4,23.6-11.3,35.7-7.4c10.1,3.3,17.7,11.8,22.3,21.1c3.5,8,7.2,16.3,7.1,25.2
		c-8.1-0.2-16.2-0.3-24.2,0c-0.1-8.4-1.9-17.6-8.4-23.4c-3.1-3-7.7-3-11.7-2.3c-6.4,1.6-10.8,7.4-13,13.3c-1,4-2.4,8-2.7,12.1
		c-7.5-0.6-15.2-0.7-22.7,0.2c-0.5-3.3,0.4-6.5,1-9.7C93,129.8,98,119.1,106.5,111.6z"/>
	<path class="st0" d="M184.7,131.7c2.8-5.8,11.6-7.4,15.9-2.4c3.8,3.3,3.1,8.7,2.2,13.1c-0.6,2.5-0.9,5.2-2.7,7.2
		c-6.4,0.4-12.8,0-19.2,0.1C181.7,143.6,182.4,137.4,184.7,131.7z"/>
</g>
<g id="_x23_5841d8ff">
	<path class="st1" d="M107.3,3.7C117.8,2.8,128.5,3,139,3.5c26.9,3.2,52.4,15.8,71.5,35c13.5,13,23,29.8,29.4,47.3
		c4.5,14.6,7.2,30,6.3,45.3c-1.4,13.1-3.8,26.3-8.9,38.5c-10,25.2-28.8,46.9-52.4,60.3c-18.4,10.5-39.7,16.5-61,15.8
		c-19.8,0.5-39.4-4.8-56.9-14c-26.2-13.9-46.9-37.7-57-65.5c-5.9-16.6-8.7-34.4-7.1-52c1.5-14.3,4.9-28.6,11.3-41.5
		C25.2,49.5,43.5,30,65.8,17.7C78.7,10.6,92.8,5.9,107.3,3.7 M55.2,85.8c-5.8,1.6-11.5,4.5-15.2,9.3c-1.8,2.2-1.9,5.2-1.3,7.8
		c3.3,5.8,10.7,5.4,16.1,7.6c2.1,0.4,2,2.8,2.3,4.5c0.3,11-0.3,22.1,0.3,33.2c0.3,0.4,1,1.1,1.4,1.5c7.5,0.2,15,0.2,22.4,0
		c1.5-3-2.7-5.4-2.4-8.6c-0.3-11.6,0.2-23.3-0.2-34.9c-0.8-6.7-2.9-14-8.7-18.1C65.7,84.9,60.2,84.9,55.2,85.8 M106.5,111.6
		c-8.5,7.5-13.6,18.2-16.6,29c-0.6,3.2-1.6,6.4-1,9.7c7.5-0.9,15.2-0.7,22.7-0.2c0.3-4.1,1.7-8.1,2.7-12.1c2.1-5.9,6.6-11.7,13-13.3
		c4-0.6,8.6-0.6,11.7,2.3c6.5,5.9,8.3,15,8.4,23.4c8.1-0.3,16.2-0.3,24.2,0c0.1-8.9-3.6-17.2-7.1-25.2c-4.6-9.3-12.2-17.8-22.3-21.1
		C130.1,100.3,116.1,103.1,106.5,111.6 M184.7,131.7c-2.3,5.7-3,11.9-3.8,18c6.4-0.1,12.8,0.3,19.2-0.1c1.7-2,2-4.7,2.7-7.2
		c1-4.4,1.6-9.8-2.2-13.1C196.3,124.3,187.5,125.9,184.7,131.7z"/>
</g>
</svg>
